images/logo-16.svg

<svg height="16" viewBox="0 0 16 16" width="16" xmlns="http://www.w3.org/2000/svg"><path d="m0 0h3.5l4 4 4-4h3.5l-7.5 7.5z"/><path d="m7.5 7.5-7.5-7.5h3.5l4 4 4-4h3.5zm-7.4-7.5 7.4 7.5 7.4-7.5h-3.4l-4 4-4-4z"/><path d="m16 1-7.5 7.5 7.5 7.5v-3.5l-4-4 4-4z"/><path d="m16 16-7.5-7.5 7.5-7.5v3.5l-4 4 4 4zm-7.5-7.5 7.4 7.4v-3.4l-3.9-4 3.9-4v-3.5z"/><path d="m0 2v14l2.5-2.5v-9z"/><path d="m0 16v-14l2.5 2.5v9zm0-14v13.9l2.5-2.4v-9z"/></svg>

<svg id="Layer_1" data-name="Layer 1" xmlns="http://www.w3.org/2000/svg" width="16" height="16" viewBox="0 0 16 16"><polygon points="0 0 3.5 0 7.5 4 11.5 0 15 0 7.5 7.5 0 0"/><path d="M7.5,7.5h0L0,0H3.5l4,4,4-4H15ZM.1,0,7.5,7.5,14.9,0H11.5l-4,4-4-4Z"/><polygon points="16 1 8.5 8.5 16 16 16 12.5 12 8.5 16 4.5 16 1"/><path d="M16,16,8.5,8.5h0L16,1V4.5h0l-4,4,4,4ZM8.5,8.5l7.4,7.4V12.5L12,8.5h0l3.9-4V1Z"/><polygon points="0 2 0 16 2.5 13.5 2.5 4.5 0 2"/><path d="M0,16V2L2.5,4.5v9h0ZM0,2V15.9l2.5-2.4v-9Z"/></svg>
